X:1
T:Title
%%score { 1 | ( 2 3 ) }
L:1/8
Q:1/4=100
M:6/8
K:F
V:1 treble nm="Grand Piano"
V:2 bass 
V:3 bass 
V:1
 F2 A AGF | [EG]2 [FA] [EG]3 | [FA]2 [Fc] .[CGc]2 [CFA] | [CEB]2 [CFA] [CEG]3 | %4
w: Robert~Lowry * * * *||||
 [A,F]2 [CFA] [CFA][EG][A,F] | [CEG]2 [CFA] [CEG]3 | [CFA]2 [_EFc] .[DFc]2 [B,DG] | %7
w: |||
 [A,CF]2 [G,CE] [A,CF]3 | [EG]2 [FA] [GB][FA][EG] | A2 d c3 | [Ec]2 [EG] [GB][FA][EG] | %11
w: ||||
 [FA]2 [F=B] [Ec]3 | c2 A AB[CAc] | [GB]2 [EG] [EG]A[CGB] | [CFA]2 [_EFc] .[DFc]2 [B,DG] | %15
w: ||||
[M:13/16] [A,CF][FA]3/2[B,EG][A,F]/-[A,F]/-[A,F]-<[A,F] |] %16
w: |
V:2
 [F,A,C]2 [F,CF] [CF][B,E][F,A,] | [C,C]2 [C,C] [C,C]3 | [F,C]2 [F,A,] z[K:treble] B[K:bass]F, | %3
 G,2 F, C,3 | F,2 F, z B,F, | C,2 C, C,3 | F,2 A,, z[K:treble] B[K:bass]B,, | C,2 C, F,3 | %8
 [C,C]2 [C,C] [C,C]2 [C,C] | [F,CF]2 [F,B,F] [F,A,F]3 | [C,G,]2 [C,C] [C,C]2 [C,C] | %11
 [F,C]2 [D,G,] [C,G,]3 | [F,A,F]2 [F,CF] FG[K:bass]F, | [C,C]2 [C,C] z FC, | %14
 F,2 A,, z[K:treble] B[K:bass]B,, |[M:13/16] z C3/2C,F,/-F,/-F,-<F, |] %16
V:3
 z3 .F,3 | x6 | z3 .E,3[K:treble][K:bass] | x6 | z3 .F,3 | x6 | z3 .B,,3[K:treble][K:bass] | x6 | %8
 x6 | x6 | x6 | x6 | z3 .[F,C]3[K:bass] | z3 .[C,C]3 | z3 .B,,3[K:treble][K:bass] | %15
[M:13/16] C,/-C,-<C, z/ z/ z/ z/ z/ z/ z |] %16

